packages/tokens/icons/channelMultiple/size16Px.svg

<svg viewBox="0 0 16 16" fill="none" xmlns="http://www.w3.org/2000/svg" width="1em" height="1em"><rect x="1.5" y="1.5" width="3" height="3" rx="0.5" stroke="currentColor"/><rect x="6.5" y="1.5" width="3" height="3" rx="0.5" stroke="currentColor"/><rect x="11.5" y="1.5" width="3" height="3" rx="0.5" stroke="currentColor"/><circle cx="4.5" cy="12.5" r="2" stroke="currentColor"/><path d="M11.5 7.5V10.5" stroke="currentColor"/><circle cx="11.5" cy="12.5" r="2" stroke="currentColor"/><path d="M3 4.5L3 6.75C3 7.16421 3.33579 7.5 3.75 7.5V7.5C4.16421 7.5 4.5 7.83579 4.5 8.25V10.5" stroke="currentColor"/><path d="M8.5 5V6.5C8.5 7.05228 8.94772 7.5 9.5 7.5H12C12.5523 7.5 13 7.05228 13 6.5V4.5" stroke="currentColor"/></svg>

<svg xmlns="http://www.w3.org/2000/svg" fill="none" viewBox="0 0 16 16" width="1em" height="1em"><rect width="3" height="3" x="1.5" y="1.5" stroke="currentColor" rx=".5"/><rect width="3" height="3" x="6.5" y="1.5" stroke="currentColor" rx=".5"/><rect width="3" height="3" x="11.5" y="1.5" stroke="currentColor" rx=".5"/><circle cx="4.5" cy="12.5" r="2" stroke="currentColor"/><path stroke="currentColor" d="M11.5 7.5v3"/><circle cx="11.5" cy="12.5" r="2" stroke="currentColor"/><path stroke="currentColor" d="M3 4.5v2.25c0 .414.336.75.75.75a.75.75 0 0 1 .75.75v2.25m4-5.5v1.5a1 1 0 0 0 1 1H12a1 1 0 0 0 1-1v-2"/></svg>
